X:400
T:Santa Claus
C:Kenny Baker
N:Transcribed by Vance Henry
R:bluegrass
L:1/8
Q:1/4=225
M:4/4
K:G
"G"^A/B3/2 z2 d3=A | Bd BA GB AG | "C"EF GB AG EG | "G"^A/B3/2 z2 z4 | ^A/B3/2 z2 d3=A | 
Bd BA G3G | "A"A2 AB AG FG | "D"AB AF (3EFE D2 | "G"^A/B3/2 z2 d3=A | Bd BA GB AG | 
"C"EF GB AG EG | "B"[B8F8] | "C"EF GB AG EG | "G"Bd BG "E"E2 eB | "A"de dB "D"AG ED | 
"G"G6 ef | gf ef gf ef | gf ed eg ed | "C"BA GB AG EG | "G"B6 ef | g2 ef g2 ef | 
gf ge d^c Bc | "A"Aa2e fa e^c | "D"d6 ef | "G"gf ef gf ef | gf ed eg ed | "C"BA GB AG EG | 
"B"[B8F8] | "C"EF GB AG EG | "G"Bd BG "E"E2 eB | "A"de dB "D"AG ED | "G"G8 | 


